src/components/installation/group-244.svg

<svg width="1440" height="416" viewBox="0 0 1440 416" fill="none" xmlns="http://www.w3.org/2000/svg">
<path d="M-275 0H1715V416H-275V0Z" fill="url(#paint0_linear_6127_25958)"/>
<mask id="mask0_6127_25958" style="mask-type:alpha" maskUnits="userSpaceOnUse" x="-275" y="0" width="1990" height="416">
<path d="M-275 0H1715V416H-275V0Z" fill="url(#paint1_linear_6127_25958)"/>
</mask>
<g mask="url(#mask0_6127_25958)">
<g filter="url(#filter0_f_6127_25958)">
<path d="M639.863 834.259C1096.39 675.815 947.094 969.958 1225.46 998.228C1503.83 1026.5 1717.03 721.177 1098.85 490.615C480.661 260.052 -140.317 1105.03 639.863 834.259Z" fill="url(#paint2_linear_6127_25958)" fill-opacity="0.4"/>
</g>
<g filter="url(#filter1_f_6127_25958)">
<path d="M-205.681 120.331C-525.795 -96.4011 -1013.1 100.656 -1030.79 -114.971C-1048.47 -330.598 -505.959 9.40184 142.026 -151.645C790.011 -312.692 341.373 490.711 -205.681 120.331Z" fill="url(#paint3_linear_6127_25958)" fill-opacity="0.7"/>
</g>
<g filter="url(#filter2_f_6127_25958)">
<path d="M787.915 64.5335C929.315 211.314 1085.01 -66.7119 1377.35 188.815C1669.68 444.342 1931.04 -66.7117 1408.33 -234.385C885.622 -402.059 619.806 -109.972 787.915 64.5335Z" fill="url(#paint4_linear_6127_25958)" fill-opacity="0.6"/>
</g>
<path opacity="0.1" d="M-116 -14.3523L-116 -136.36L-116 -254.778L-116 -421.648C-116 -430.831 -110.588 -439.317 -101.804 -443.909L287.804 -647.556C296.588 -652.148 307.411 -652.148 316.196 -647.556L705.804 -443.909C714.589 -439.317 720 -430.831 720 -421.648V-297.581V-178.377V-14.3523C720 -5.16895 714.589 3.31677 705.804 7.90845L316.196 211.556C307.411 216.148 296.588 216.148 287.804 211.556L-101.804 7.90845C-110.588 3.31677 -116 -5.16895 -116 -14.3523Z" fill="url(#paint5_linear_6127_25958)"/>
<path opacity="0.1" d="M1320 -8.33817L1320 -54.2671L1320 -98.845L1320 -161.662C1320 -165.119 1322.24 -168.313 1325.88 -170.042L1487.12 -246.704C1490.76 -248.432 1495.24 -248.432 1498.88 -246.704L1660.12 -170.042C1663.76 -168.313 1666 -165.119 1666 -161.662V-114.958V-70.0843V-8.33817C1666 -4.88115 1663.76 -1.68675 1660.12 0.041748L1498.88 76.7036C1495.24 78.4321 1490.76 78.4321 1487.12 76.7036L1325.88 0.041748C1322.24 -1.68675 1320 -4.88115 1320 -8.33817Z" fill="url(#paint6_linear_6127_25958)"/>
<path opacity="0.05" d="M979 521.274L979 469.287L979 418.829L979 347.726C979 343.813 981.492 340.198 985.538 338.241L1164.96 251.467C1169.01 249.511 1173.99 249.511 1178.04 251.467L1357.46 338.241C1361.51 340.198 1364 343.813 1364 347.726V400.591V451.383V521.274C1364 525.187 1361.51 528.802 1357.46 530.759L1178.04 617.533C1173.99 619.489 1169.01 619.489 1164.96 617.533L985.538 530.759C981.492 528.802 979 525.187 979 521.274Z" fill="url(#paint7_linear_6127_25958)"/>
</g>
<defs>
<filter id="filter0_f_6127_25958" x="89.7344" y="265.274" width="1594.4" height="919.783" filterUnits="userSpaceOnUse" color-interpolation-filters="sRGB">
<feFlood flood-opacity="0" result="BackgroundImageFix"/>
<feBlend mode="normal" in="SourceGraphic" in2="BackgroundImageFix" result="shape"/>
<feGaussianBlur stdDeviation="92.5" result="effect1_foregroundBlur_6127_25958"/>
</filter>
<filter id="filter1_f_6127_25958" x="-1277.21" y="-435.061" width="1985.41" height="900.055" filterUnits="userSpaceOnUse" color-interpolation-filters="sRGB">
<feFlood flood-opacity="0" result="BackgroundImageFix"/>
<feBlend mode="normal" in="SourceGraphic" in2="BackgroundImageFix" result="shape"/>
<feGaussianBlur stdDeviation="123" result="effect1_foregroundBlur_6127_25958"/>
</filter>
<filter id="filter2_f_6127_25958" x="602.699" y="-419.54" width="1240.12" height="813.623" filterUnits="userSpaceOnUse" color-interpolation-filters="sRGB">
<feFlood flood-opacity="0" result="BackgroundImageFix"/>
<feBlend mode="normal" in="SourceGraphic" in2="BackgroundImageFix" result="shape"/>
<feGaussianBlur stdDeviation="67.5" result="effect1_foregroundBlur_6127_25958"/>
</filter>
<linearGradient id="paint0_linear_6127_25958" x1="-1174" y1="1001.14" x2="1667.97" y2="140.668" gradientUnits="userSpaceOnUse">
<stop stop-color="#00B4D5"/>
<stop offset="1" stop-color="#0081A7"/>
</linearGradient>
<linearGradient id="paint1_linear_6127_25958" x1="-275" y1="425.473" x2="1575.77" y2="-204.549" gradientUnits="userSpaceOnUse">
<stop stop-color="#1B45B4"/>
<stop offset="1" stop-color="#1C2792"/>
</linearGradient>
<linearGradient id="paint2_linear_6127_25958" x1="111.18" y1="922.439" x2="1115.23" y2="274.653" gradientUnits="userSpaceOnUse">
<stop stop-color="white"/>
<stop offset="1" stop-color="#99E1EE"/>
</linearGradient>
<linearGradient id="paint3_linear_6127_25958" x1="166.263" y1="340.181" x2="-483.389" y2="-363.687" gradientUnits="userSpaceOnUse">
<stop stop-color="#00B4D5"/>
<stop offset="1" stop-color="#CCF2F4"/>
</linearGradient>
<linearGradient id="paint4_linear_6127_25958" x1="510.132" y1="224.408" x2="1435.43" y2="-372.264" gradientUnits="userSpaceOnUse">
<stop stop-color="#0081A7"/>
<stop offset="1" stop-color="#66D2E6"/>
</linearGradient>
<linearGradient id="paint5_linear_6127_25958" x1="304.533" y1="431.5" x2="1001.43" y2="-39.5315" gradientUnits="userSpaceOnUse">
<stop offset="0.500188" stop-color="#0081A7"/>
<stop offset="1" stop-color="#7AEAFF"/>
</linearGradient>
<linearGradient id="paint6_linear_6127_25958" x1="1494.05" y1="159.5" x2="1764.76" y2="-41.6644" gradientUnits="userSpaceOnUse">
<stop offset="0.500188" stop-color="#0081A7"/>
<stop offset="1" stop-color="#7AEAFF"/>
</linearGradient>
<linearGradient id="paint7_linear_6127_25958" x1="1397.7" y1="619" x2="1577.32" y2="285.219" gradientUnits="userSpaceOnUse">
<stop stop-color="#7CE1FF"/>
<stop offset="1" stop-color="#0081A7"/>
</linearGradient>
</defs>
</svg>

<svg xmlns="http://www.w3.org/2000/svg" width="1440" height="416" fill="none"><path fill="url(#a)" d="M-275 0h1990v416H-275V0Z"/><mask id="c" width="1990" height="416" x="-275" y="0" maskUnits="userSpaceOnUse" style="mask-type:alpha"><path fill="url(#b)" d="M-275 0h1990v416H-275V0Z"/></mask><g mask="url(#c)"><g filter="url(#d)"><path fill="url(#e)" fill-opacity=".4" d="M639.863 834.259c456.527-158.444 307.231 135.699 585.597 163.969 278.37 28.272 491.57-277.051-126.61-507.613C480.661 260.052-140.317 1105.03 639.863 834.259Z"/></g><g filter="url(#f)"><path fill="url(#g)" fill-opacity=".7" d="M-205.681 120.331C-525.795-96.401-1013.1 100.656-1030.79-114.971c-17.68-215.627 524.831 124.373 1172.816-36.674s199.347 642.356-347.707 271.976Z"/></g><g filter="url(#h)"><path fill="url(#i)" fill-opacity=".6" d="M787.915 64.534c141.4 146.78 297.095-131.246 589.435 124.281 292.33 255.527 553.69-255.527 30.98-423.2C885.622-402.059 619.806-109.972 787.915 64.533Z"/></g><path fill="url(#j)" d="M-116-14.352v-407.296c0-9.183 5.412-17.669 14.196-22.261l389.608-203.647c8.784-4.592 19.607-4.592 28.392 0l389.608 203.647c8.785 4.592 14.196 13.078 14.196 22.261v407.296c0 9.183-5.411 17.669-14.196 22.26L316.196 211.556c-8.785 4.592-19.608 4.592-28.392 0L-101.804 7.908C-110.588 3.317-116-5.169-116-14.352Z" opacity=".1"/><path fill="url(#k)" d="M1320-8.338v-153.324c0-3.457 2.24-6.651 5.88-8.38l161.24-76.662c3.64-1.728 8.12-1.728 11.76 0l161.24 76.662c3.64 1.729 5.88 4.923 5.88 8.38V-8.338c0 3.457-2.24 6.651-5.88 8.38l-161.24 76.662c-3.64 1.728-8.12 1.728-11.76 0L1325.88.042c-3.64-1.729-5.88-4.923-5.88-8.38Z" opacity=".1"/><path fill="url(#l)" d="M979 521.274V347.726c0-3.913 2.492-7.528 6.538-9.485l179.422-86.774c4.05-1.956 9.03-1.956 13.08 0l179.42 86.774c4.05 1.957 6.54 5.572 6.54 9.485v173.548c0 3.913-2.49 7.528-6.54 9.485l-179.42 86.774c-4.05 1.956-9.03 1.956-13.08 0l-179.422-86.774c-4.046-1.957-6.538-5.572-6.538-9.485Z" opacity=".05"/></g><defs><linearGradient id="a" x1="-1174" x2="1667.97" y1="1001.14" y2="140.668" gradientUnits="userSpaceOnUse"><stop stop-color="#00B4D5"/><stop offset="1" stop-color="#0081A7"/></linearGradient><linearGradient id="b" x1="-275" x2="1575.77" y1="425.473" y2="-204.549" gradientUnits="userSpaceOnUse"><stop stop-color="#1B45B4"/><stop offset="1" stop-color="#1C2792"/></linearGradient><linearGradient id="e" x1="111.18" x2="1115.23" y1="922.439" y2="274.653" gradientUnits="userSpaceOnUse"><stop stop-color="#fff"/><stop offset="1" stop-color="#99E1EE"/></linearGradient><linearGradient id="g" x1="166.263" x2="-483.389" y1="340.181" y2="-363.687" gradientUnits="userSpaceOnUse"><stop stop-color="#00B4D5"/><stop offset="1" stop-color="#CCF2F4"/></linearGradient><linearGradient id="i" x1="510.132" x2="1435.43" y1="224.408" y2="-372.264" gradientUnits="userSpaceOnUse"><stop stop-color="#0081A7"/><stop offset="1" stop-color="#66D2E6"/></linearGradient><linearGradient id="j" x1="304.533" x2="1001.43" y1="431.5" y2="-39.532" gradientUnits="userSpaceOnUse"><stop offset=".5" stop-color="#0081A7"/><stop offset="1" stop-color="#7AEAFF"/></linearGradient><linearGradient id="k" x1="1494.05" x2="1764.76" y1="159.5" y2="-41.664" gradientUnits="userSpaceOnUse"><stop offset=".5" stop-color="#0081A7"/><stop offset="1" stop-color="#7AEAFF"/></linearGradient><linearGradient id="l" x1="1397.7" x2="1577.32" y1="619" y2="285.219" gradientUnits="userSpaceOnUse"><stop stop-color="#7CE1FF"/><stop offset="1" stop-color="#0081A7"/></linearGradient><filter id="d" width="1594.4" height="919.783" x="89.734" y="265.274" color-interpolation-filters="sRGB" filterUnits="userSpaceOnUse"><feFlood flood-opacity="0" result="BackgroundImageFix"/><feBlend in="SourceGraphic" in2="BackgroundImageFix" result="shape"/><feGaussianBlur result="effect1_foregroundBlur_6127_25958" stdDeviation="92.5"/></filter><filter id="f" width="1985.41" height="900.055" x="-1277.21" y="-435.061" color-interpolation-filters="sRGB" filterUnits="userSpaceOnUse"><feFlood flood-opacity="0" result="BackgroundImageFix"/><feBlend in="SourceGraphic" in2="BackgroundImageFix" result="shape"/><feGaussianBlur result="effect1_foregroundBlur_6127_25958" stdDeviation="123"/></filter><filter id="h" width="1240.12" height="813.623" x="602.699" y="-419.54" color-interpolation-filters="sRGB" filterUnits="userSpaceOnUse"><feFlood flood-opacity="0" result="BackgroundImageFix"/><feBlend in="SourceGraphic" in2="BackgroundImageFix" result="shape"/><feGaussianBlur result="effect1_foregroundBlur_6127_25958" stdDeviation="67.5"/></filter></defs></svg>
